src/16/panel/krudiotray-light-off16.svg

<svg xmlns="http://www.w3.org/2000/svg" width="16" height="16" version="1.1">
 <defs>
  <style id="current-color-scheme" type="text/css">
   .ColorScheme-Text { color:#bebebe; } .ColorScheme-Highlight { color:#5294e2; }
  </style>
 </defs>
 <path style="fill:currentColor" class="ColorScheme-Text" d="M 1.015625 2 C 0.4527806 2 -1.4802974e-16 2.4575152 0 3.0273438 L 0 12.972656 C 0 13.542656 0.4527806 14 1.015625 14 L 14.984375 14 C 15.547931 14 16 13.542656 16 12.972656 L 16 3.0273438 C 16 2.4576866 15.547931 2 14.984375 2 L 1.015625 2 z M 5 4 C 7.209 4 9 5.7909 9 8 C 9 10.209 7.209 12 5 12 C 2.7909 12 1 10.209 1 8 C 1 5.7909 2.7909 4 5 4 z M 10 4 L 15 4 L 15 5 L 10 5 L 10 4 z M 10 7 L 15 7 L 15 8 L 10 8 L 10 7 z M 10 10 L 15 10 L 15 11 L 10 11 L 10 10 z"/>
 <path style="fill:currentColor" class="ColorScheme-Text" d="m 5.0996,5 c -1.6569,0 -3,1.3432 -3,3 0,1.657 1.3431,3 3,3 C 6.7565,11 8.1,9.657 8.1,8 8.1,6.3432 6.7565,5 5.0996,5 Z"/>
</svg>

<svg xmlns="http://www.w3.org/2000/svg" width="16" height="16"><defs><style id="current-color-scheme" type="text/css">.ColorScheme-Text{color:#bebebe}</style></defs><path class="ColorScheme-Text" d="M1.016 2C.453 2 0 2.458 0 3.027v9.946C0 13.543.453 14 1.016 14h13.968c.564 0 1.016-.457 1.016-1.027V3.027C16 2.457 15.548 2 14.984 2H1.016zM5 4a4 4 0 1 1 0 8 4 4 0 0 1 0-8zm5 0h5v1h-5V4zm0 3h5v1h-5V7zm0 3h5v1h-5v-1z" fill="currentColor"/><path class="ColorScheme-Text" d="M5.1 5a3 3 0 1 0 0 6 3 3 0 0 0 0-6z" fill="currentColor"/></svg>
